icons/glyphs/glyph-anchor.svg

<?xml version="1.0" encoding="UTF-8" standalone="no"?><svg height="16" viewBox="0 0 4.2333332 4.2333332" width="16" xmlns="http://www.w3.org/2000/svg"><sodipodi:namedview/><metadata><rdf:RDF><cc:Work><dc:format>image/svg+xml</dc:format><dc:type/><dc:title/></cc:Work></rdf:RDF></metadata><path d="m2.1166666.00000006c-.323802 0-.5904718.26666982-.5904718.59047186 0 .25924063.1721134.47920098.4064157.55764028v.7844769h-.2019642v.3681122h.2019642v1.5197064c-.410892-.0380052-.8119989-.2150602-1.12771669-.5307779l-.09551019-.0960076.28503822-.2890179-.95112231-.1044642.11690049.9491323.26215556-.2656375.0950127.094515c.87357782.8735777 2.29566912.8735777 3.16924692 0l .1213777-.1213773.2656378.2696171.116403-.9491324-.9506249.1039668.2815561.2855358-.1233673.1228699c-.3079228.3079225-.6966648.4830439-1.0968749.5267983v-1.5157268h.2019643v-.3681122h-.2019643v-.7844769c.2343024-.078439.4064157-.29839965.4064157-.55764028 0-.32380204-.2666696-.59047186-.5904718-.59047186zm0 .35716832c.1310967 0 .2333035.10220696.2333035.23330354 0 .13109657-.1022068.23330353-.2333035.23330353-.1310966 0-.2333035-.10220696-.2333035-.23330353 0-.13109658.1022069-.23330354.2333035-.23330354z" fill="#d0d0d0"/></svg>

<?xml version="1.0" encoding="UTF-8" standalone="no"?>
<!-- Created with Inkscape (http://www.inkscape.org/) -->

<svg
   xmlns:dc="http://purl.org/dc/elements/1.1/"
   xmlns:cc="http://creativecommons.org/ns#"
   xmlns:rdf="http://www.w3.org/1999/02/22-rdf-syntax-ns#"
   xmlns:svg="http://www.w3.org/2000/svg"
   xmlns="http://www.w3.org/2000/svg"
   xmlns:sodipodi="http://sodipodi.sourceforge.net/DTD/sodipodi-0.dtd"
   xmlns:inkscape="http://www.inkscape.org/namespaces/inkscape"
   width="16"
   height="16"
   viewBox="0 0 4.2333332 4.2333332"
   version="1.1"
   id="svg8"
   inkscape:version="0.92+devel (d0390b9f4f, 2017-07-31, custom)"
   sodipodi:docname="glyph-anchor.svg">
  <defs
     id="defs2" />
  <sodipodi:namedview
     id="base"
     pagecolor="#002466"
     bordercolor="#ffffff"
     borderopacity="0.38039216"
     inkscape:pageopacity="1"
     inkscape:pageshadow="2"
     inkscape:zoom="25.75"
     inkscape:cx="14.392237"
     inkscape:cy="6.3913007"
     inkscape:document-units="px"
     inkscape:current-layer="svg8"
     inkscape:document-rotation="0"
     showgrid="false"
     inkscape:showpageshadow="false"
     borderlayer="true"
     inkscape:window-width="1920"
     inkscape:window-height="1051"
     inkscape:window-x="0"
     inkscape:window-y="0"
     inkscape:window-maximized="1"
     units="px"
     inkscape:snap-page="true"
     inkscape:snap-grids="false"
     inkscape:snap-to-guides="false"
     inkscape:snap-object-midpoints="true"
     inkscape:snap-center="true" />
  <metadata
     id="metadata5">
    <rdf:RDF>
      <cc:Work
         rdf:about="">
        <dc:format>image/svg+xml</dc:format>
        <dc:type
           rdf:resource="http://purl.org/dc/dcmitype/StillImage" />
        <dc:title />
      </cc:Work>
    </rdf:RDF>
  </metadata>
  <path
     style="color:#000000;font-style:normal;font-variant:normal;font-weight:normal;font-stretch:normal;font-size:medium;line-height:normal;font-family:sans-serif;font-variant-ligatures:normal;font-variant-position:normal;font-variant-caps:normal;font-variant-numeric:normal;font-variant-alternates:normal;font-variant-east-asian:normal;font-feature-settings:normal;font-variation-settings:normal;text-indent:0;text-align:start;text-decoration:none;text-decoration-line:none;text-decoration-style:solid;text-decoration-color:#000000;letter-spacing:normal;word-spacing:normal;text-transform:none;writing-mode:lr-tb;direction:ltr;text-orientation:mixed;dominant-baseline:auto;baseline-shift:baseline;text-anchor:start;white-space:normal;shape-padding:0;clip-rule:nonzero;display:inline;overflow:visible;visibility:visible;opacity:1;isolation:auto;mix-blend-mode:normal;color-interpolation:sRGB;color-interpolation-filters:linearRGB;solid-color:#000000;solid-opacity:1;vector-effect:none;fill:#d0d0d0;fill-opacity:1;fill-rule:nonzero;stroke:none;stroke-width:0.42333335;stroke-linecap:square;stroke-linejoin:miter;stroke-miterlimit:4;stroke-dasharray:none;stroke-dashoffset:0;stroke-opacity:1;color-rendering:auto;image-rendering:auto;shape-rendering:auto;text-rendering:auto;enable-background:accumulate"
     d="m 2.1166666,5.75e-8 c -0.323802,0 -0.5904718,0.2666698225 -0.5904718,0.5904718625 0,0.25924063 0.1721134,0.47920098 0.4064157,0.55764028 V 1.9325891 H 1.7306463 V 2.3007013 H 1.9326105 V 3.8204077 C 1.5217185,3.7824025 1.1206116,3.6053475 0.80489381,3.2896298 L 0.70938362,3.1936222 0.99442184,2.9046043 0.04329953,2.8001401 0.16020002,3.7492724 0.42235558,3.4836349 l 0.0950127,0.094515 c 0.87357782,0.8735777 2.29566912,0.8735777 3.16924692,0 L 3.8079929,3.4567726 4.0736307,3.7263897 4.1900337,2.7772573 3.2394088,2.8812241 3.5209649,3.1667599 3.3975976,3.2896298 C 3.0896748,3.5975523 2.7009328,3.7726737 2.3007227,3.8164281 V 2.3007013 H 2.502687 V 1.9325891 H 2.3007227 V 1.1481122 C 2.5350251,1.0696732 2.7071384,0.84971255 2.7071384,0.59047192 2.7071384,0.26666988 2.4404688,5.75e-8 2.1166666,5.75e-8 Z m 0,0.3571683225 c 0.1310967,0 0.2333035,0.10220696 0.2333035,0.23330354 0,0.13109657 -0.1022068,0.23330353 -0.2333035,0.23330353 -0.1310966,0 -0.2333035,-0.10220696 -0.2333035,-0.23330353 0,-0.13109658 0.1022069,-0.23330354 0.2333035,-0.23330354 z"
     id="path824"
     inkscape:connector-curvature="0" />
</svg>
